X: 10009
T: BETTIE'S HORNPIPE
C: Bob McQuillen 8 Apr 93
B: Bob's Note Book 10 #9
%R: hornpipe, reel
Z: 2021 John Chambers <jc:trillian.mit.edu>
M: C
L: 1/8
K: G
DE \
| G2BG AGED | GBAG E2DE | G2GB AGBd | egbg a2ba |\
| g2gb aged | gedB AGED | GBdg egdc | B2G2 G2 :|
|: Bd \
| e2ge d2Bd | edce d4   | c2de d2g2 | fed^c d4 |\
| c2de dBGB | ABcd B2GA | BGBd ecAF | G2B2 G2 :|
%%begintext align
%% Bettie Anderson lives
%% over in Mason, N.H., and she's doing some neat dance stuff with
%% Steve Zakon. She and Steve are two of thenicest people in
%% my life, and I am most grateful for the may kindnesses I
%% have received from them both. Much love to the two of you, Bettie -
%% from MAC
%%endtext
